components/ui-node-icon/src/mergeColumns/mergeColumns.medium.svg

<svg width="24" height="24" viewBox="0 0 24 24" fill="none" xmlns="http://www.w3.org/2000/svg">
  <path fill-rule="evenodd" clip-rule="evenodd" d="M11.5 2.5C11.5 1.94772 11.0523 1.5 10.5 1.5C9.94771 1.5 9.5 1.94772 9.5 2.5V21.5C9.5 22.0523 9.94771 22.5 10.5 22.5C11.0523 22.5 11.5 22.0523 11.5 21.5V2.5ZM21.2929 8.79292C21.5789 8.50693 22.009 8.42137 22.3827 8.57615C22.7564 8.73093 23 9.09557 23 9.50003V13.5C23 13.9045 22.7564 14.2691 22.3827 14.4239C22.009 14.5787 21.5789 14.4931 21.2929 14.2071L19.2929 12.2071C18.9024 11.8166 18.9024 11.1834 19.2929 10.7929L21.2929 8.79292ZM15.5 1.5C16.0523 1.5 16.5 1.94772 16.5 2.5V21.5C16.5 22.0523 16.0523 22.5 15.5 22.5C14.9477 22.5 14.5 22.0523 14.5 21.5V2.5C14.5 1.94772 14.9477 1.5 15.5 1.5ZM4.20711 8.79292C3.92111 8.50693 3.49099 8.42137 3.11732 8.57615C2.74364 8.73093 2.5 9.09557 2.5 9.50003V13.5C2.5 13.9045 2.74364 14.2691 3.11732 14.4239C3.49099 14.5787 3.92111 14.4931 4.20711 14.2071L6.20711 12.2071C6.59763 11.8166 6.59763 11.1834 6.20711 10.7929L4.20711 8.79292Z" fill="var(--tbl--colors--icons--clean--primary)"/>
</svg>

<svg xmlns="http://www.w3.org/2000/svg" width="24" height="24" fill="none" viewBox="0 0 24 24">
  <path fill="var(--tbl--colors--icons--clean--primary)" fill-rule="evenodd" d="M11.5 2.5a1 1 0 1 0-2 0v19a1 1 0 1 0 2 0v-19Zm9.793 6.293A1 1 0 0 1 23 9.5v4a1 1 0 0 1-1.707.707l-2-2a1 1 0 0 1 0-1.414l2-2ZM15.5 1.5a1 1 0 0 1 1 1v19a1 1 0 1 1-2 0v-19a1 1 0 0 1 1-1ZM4.207 8.793A1 1 0 0 0 2.5 9.5v4a1 1 0 0 0 1.707.707l2-2a1 1 0 0 0 0-1.414l-2-2Z" clip-rule="evenodd"/>
</svg>
